svg/logo-dark.svg

<?xml version="1.0" encoding="UTF-8" standalone="no"?>
<!DOCTYPE svg PUBLIC "-//W3C//DTD SVG 1.1//EN" "http://www.w3.org/Graphics/SVG/1.1/DTD/svg11.dtd">
<svg width="100%" height="100%" viewBox="0 0 189 60" version="1.1" xmlns="http://www.w3.org/2000/svg" xmlns:xlink="http://www.w3.org/1999/xlink" xml:space="preserve" xmlns:serif="http://www.serif.com/" style="fill-rule:evenodd;clip-rule:evenodd;stroke-linejoin:round;stroke-miterlimit:2;">
    <g transform="matrix(1,0,0,1,-1652.92,-144)">
        <g transform="matrix(0.0622431,0,0,0.0622431,1600.16,125.509)">
            <path d="M1312.01,600.78c3.65,-2.11 8.15,-2.11 11.81,0c3.65,2.11 5.9,6.009 5.9,10.228l0,90.834c0,4.22 -2.25,8.119 -5.9,10.229l-141.62,81.764c-3.65,2.109 -5.91,6.009 -5.91,10.228l0,445.167c0,4.22 -2.25,8.12 -5.9,10.23c-3.66,2.11 -8.16,2.11 -11.81,0l-78.67,-45.42c-3.65,-2.11 -5.9,-6.01 -5.9,-10.23l0,-458.802c0,-4.22 2.25,-8.119 5.9,-10.229l232.1,-133.999Z" style="fill:rgb(91,35,35);"/>
        </g>
        <g transform="matrix(0.0622431,0,0,0.0622431,1600.16,125.509)">
            <path d="M989.188,491.884c-3.602,2.08 -5.822,5.924 -5.822,10.084c0,4.161 2.22,8.005 5.822,10.085l79.002,45.609c3.6,2.08 8.04,2.08 11.64,0l244.07,-140.915c3.61,-2.08 8.04,-2.08 11.65,-0l192.93,111.388c3.6,2.08 5.82,5.924 5.82,10.084l-0,222.774c-0,4.161 -2.22,8.005 -5.82,10.085l-192.93,111.387c-3.61,2.08 -5.83,5.925 -5.83,10.085l-0,91.218c-0,4.16 2.22,8.004 5.83,10.084c3.6,2.081 8.04,2.081 11.64,-0l283.57,-163.719c3.6,-2.08 5.82,-5.924 5.82,-10.084l-0,-340.885c-0,-4.16 -2.22,-8.004 -5.82,-10.085l-295.21,-170.442c-3.61,-2.08 -8.04,-2.08 -11.65,-0l-334.712,193.247Z" style="fill:rgb(80,80,80);"/>
        </g>
        <g transform="matrix(6.21141,0,0,0.946931,1205.55,105.519)">
            <rect x="72.025" y="40.637" width="9.66" height="63.363" style="fill:none;"/>
        </g>
        <g transform="matrix(0.780071,0,0,0.780071,1712.97,192.813)">
            <text x="0px" y="0px" style="font-family:'Questrial-Regular', 'Questrial';font-size:16.667px;fill:rgb(64,64,64);">A personal homepage</text>
        </g>
        <g transform="matrix(1,0,0,1,1711.73,177.213)">
            <text x="0px" y="0px" style="font-family:'Questrial-Regular', 'Questrial';font-size:33.333px;fill:rgb(80,80,80);">P<tspan x="20.733px 40.566px " y="0px 0px ">al</tspan>zs</text>
        </g>
        <g transform="matrix(1,0,0,1,1797.76,177.213)">
            <text x="0px" y="0px" style="font-family:'Questrial-Regular', 'Questrial';font-size:33.333px;fill:rgb(91,35,35);">HP</text>
        </g>
    </g>
</svg>

<?xml version="1.0" encoding="UTF-8" standalone="no"?>
<!DOCTYPE svg PUBLIC "-//W3C//DTD SVG 1.1//EN" "http://www.w3.org/Graphics/SVG/1.1/DTD/svg11.dtd">
<svg width="100%" height="100%" viewBox="0 0 189 60" version="1.1" xmlns="http://www.w3.org/2000/svg" xmlns:xlink="http://www.w3.org/1999/xlink" xml:space="preserve" xmlns:serif="http://www.serif.com/" style="fill-rule:evenodd;clip-rule:evenodd;stroke-linejoin:round;stroke-miterlimit:2;">
    <g transform="matrix(1,0,0,1,-3650.92,-144)">
        <g transform="matrix(1,0,0,1,2785.07,0)">
            <g transform="matrix(1,0,0,1,815.85,104)">
                <g transform="matrix(0.0622431,0,0,0.0622431,-2.76619,21.509)">
                    <path d="M1312.01,600.78C1315.66,598.67 1320.16,598.67 1323.82,600.78C1327.47,602.89 1329.72,606.789 1329.72,611.008L1329.72,701.842C1329.72,706.062 1327.47,709.961 1323.82,712.071L1182.2,793.835C1178.55,795.944 1176.29,799.844 1176.29,804.063L1176.29,1249.23C1176.29,1253.45 1174.04,1257.35 1170.39,1259.46C1166.73,1261.57 1162.23,1261.57 1158.58,1259.46L1079.91,1214.04C1076.26,1211.93 1074.01,1208.03 1074.01,1203.81L1074.01,745.008C1074.01,740.788 1076.26,736.889 1079.91,734.779L1312.01,600.78Z" style="fill:rgb(91,35,35);"/>
                </g>
                <g transform="matrix(0.0622431,0,0,0.0622431,-2.76619,21.509)">
                    <path d="M989.188,491.884C985.586,493.964 983.366,497.808 983.366,501.968C983.366,506.129 985.586,509.973 989.188,512.053L1068.19,557.662C1071.79,559.742 1076.23,559.742 1079.83,557.662L1323.9,416.747C1327.51,414.667 1331.94,414.667 1335.55,416.747L1528.48,528.135C1532.08,530.215 1534.3,534.059 1534.3,538.219L1534.3,760.993C1534.3,765.154 1532.08,768.998 1528.48,771.078L1335.55,882.465C1331.94,884.545 1329.72,888.39 1329.72,892.55L1329.72,983.768C1329.72,987.928 1331.94,991.772 1335.55,993.852C1339.15,995.933 1343.59,995.933 1347.19,993.852L1630.76,830.133C1634.36,828.053 1636.58,824.209 1636.58,820.049L1636.58,479.164C1636.58,475.004 1634.36,471.16 1630.76,469.079L1335.55,298.637C1331.94,296.557 1327.51,296.557 1323.9,298.637L989.188,491.884Z" style="fill:rgb(80,80,80);"/>
                </g>
                <g transform="matrix(6.21141,0,0,0.946931,-397.376,1.51916)">
                    <rect x="72.025" y="40.637" width="9.66" height="63.363" style="fill:none;"/>
                </g>
            </g>
        </g>
        <g transform="matrix(1,0,0,1,2785.07,0)">
            <g transform="matrix(0.780071,0,0,0.780071,734.392,62.6428)">
                <g transform="matrix(16.6667,0,0,16.6667,245.493,166.87)">
                    <path d="M0.659,-0L0.576,-0L0.495,-0.192L0.167,-0.192L0.086,-0L0.003,-0L0.284,-0.662L0.378,-0.662L0.659,-0ZM0.466,-0.261L0.331,-0.584L0.196,-0.261L0.466,-0.261Z" style="fill:rgb(64,64,64);fill-rule:nonzero;"/>
                </g>
                <g transform="matrix(16.6667,0,0,16.6667,260.076,166.87)">
                    <path d="M0.14,-0.42C0.18,-0.479 0.24,-0.508 0.319,-0.508C0.39,-0.508 0.449,-0.483 0.494,-0.433C0.539,-0.384 0.561,-0.323 0.561,-0.25C0.561,-0.177 0.539,-0.116 0.494,-0.067C0.449,-0.017 0.389,0.008 0.314,0.008C0.239,0.008 0.181,-0.022 0.14,-0.081L0.14,0.198L0.065,0.198L0.065,-0.5L0.14,-0.5L0.14,-0.42ZM0.309,-0.44C0.255,-0.44 0.212,-0.421 0.181,-0.384C0.151,-0.349 0.136,-0.305 0.136,-0.25C0.136,-0.195 0.151,-0.151 0.181,-0.116C0.212,-0.079 0.255,-0.06 0.309,-0.06C0.362,-0.06 0.406,-0.079 0.439,-0.116C0.47,-0.151 0.486,-0.196 0.486,-0.25C0.486,-0.304 0.47,-0.349 0.439,-0.384C0.406,-0.421 0.362,-0.44 0.309,-0.44Z" style="fill:rgb(64,64,64);fill-rule:nonzero;"/>
                </g>
                <g transform="matrix(16.6667,0,0,16.6667,269.976,166.87)">
                    <path d="M0.288,-0.06C0.356,-0.06 0.404,-0.088 0.433,-0.144L0.515,-0.144C0.498,-0.099 0.47,-0.062 0.432,-0.034C0.395,-0.006 0.347,0.008 0.287,0.008C0.212,0.008 0.15,-0.017 0.103,-0.067C0.057,-0.116 0.034,-0.177 0.034,-0.25C0.034,-0.324 0.056,-0.385 0.1,-0.433C0.147,-0.483 0.207,-0.508 0.282,-0.508C0.357,-0.508 0.417,-0.483 0.464,-0.433C0.508,-0.385 0.53,-0.324 0.53,-0.25L0.53,-0.22L0.111,-0.22C0.116,-0.175 0.134,-0.137 0.166,-0.106C0.197,-0.075 0.238,-0.06 0.288,-0.06ZM0.398,-0.397C0.367,-0.426 0.329,-0.44 0.282,-0.44C0.235,-0.44 0.197,-0.426 0.166,-0.397C0.137,-0.37 0.119,-0.335 0.112,-0.29L0.452,-0.29C0.445,-0.335 0.427,-0.37 0.398,-0.397Z" style="fill:rgb(64,64,64);fill-rule:nonzero;"/>
                </g>
                <g transform="matrix(16.6667,0,0,16.6667,279.259,166.87)">
                    <path d="M0.329,-0.508L0.329,-0.433L0.32,-0.433C0.266,-0.433 0.222,-0.411 0.188,-0.368C0.156,-0.327 0.14,-0.277 0.14,-0.22L0.14,-0L0.065,-0L0.065,-0.5L0.14,-0.5L0.14,-0.377C0.156,-0.428 0.191,-0.467 0.244,-0.492C0.265,-0.503 0.292,-0.508 0.324,-0.508L0.329,-0.508Z" style="fill:rgb(64,64,64);fill-rule:nonzero;"/>
                </g>
                <g transform="matrix(16.6667,0,0,16.6667,285.009,166.87)">
                    <path d="M0.359,-0.366C0.352,-0.418 0.31,-0.444 0.234,-0.444C0.157,-0.444 0.118,-0.42 0.118,-0.372C0.118,-0.352 0.126,-0.337 0.142,-0.326C0.159,-0.316 0.179,-0.308 0.204,-0.301C0.223,-0.296 0.249,-0.289 0.284,-0.282C0.313,-0.277 0.34,-0.269 0.365,-0.258C0.39,-0.248 0.41,-0.234 0.426,-0.216C0.443,-0.199 0.451,-0.174 0.451,-0.142C0.451,-0.093 0.433,-0.056 0.396,-0.03C0.359,-0.005 0.309,0.008 0.247,0.008C0.18,0.008 0.127,-0.009 0.088,-0.042C0.053,-0.071 0.033,-0.109 0.03,-0.157L0.108,-0.157C0.113,-0.111 0.139,-0.08 0.186,-0.064C0.204,-0.059 0.221,-0.056 0.238,-0.056C0.254,-0.056 0.27,-0.057 0.285,-0.059C0.298,-0.061 0.312,-0.065 0.328,-0.07C0.36,-0.083 0.376,-0.105 0.376,-0.135C0.376,-0.156 0.368,-0.172 0.352,-0.182C0.338,-0.192 0.317,-0.201 0.29,-0.21C0.249,-0.22 0.222,-0.226 0.21,-0.228C0.182,-0.233 0.155,-0.241 0.129,-0.252C0.105,-0.261 0.085,-0.275 0.068,-0.293C0.051,-0.31 0.043,-0.334 0.043,-0.365C0.043,-0.41 0.059,-0.445 0.092,-0.47C0.125,-0.495 0.174,-0.508 0.239,-0.508C0.3,-0.508 0.349,-0.493 0.384,-0.464C0.413,-0.439 0.43,-0.406 0.435,-0.366L0.359,-0.366Z" style="fill:rgb(64,64,64);fill-rule:nonzero;"/>
                </g>
                <g transform="matrix(16.6667,0,0,16.6667,293.043,166.87)">
                    <path d="M0.1,-0.433C0.147,-0.483 0.207,-0.508 0.282,-0.508C0.357,-0.508 0.417,-0.483 0.464,-0.433C0.508,-0.385 0.53,-0.324 0.53,-0.25C0.53,-0.176 0.508,-0.115 0.464,-0.067C0.417,-0.017 0.357,0.008 0.282,0.008C0.207,0.008 0.147,-0.017 0.1,-0.067C0.056,-0.115 0.034,-0.176 0.034,-0.25C0.034,-0.324 0.056,-0.385 0.1,-0.433ZM0.154,-0.116C0.185,-0.079 0.228,-0.06 0.282,-0.06C0.336,-0.06 0.379,-0.079 0.41,-0.116C0.44,-0.151 0.455,-0.196 0.455,-0.25C0.455,-0.305 0.44,-0.349 0.41,-0.384C0.379,-0.421 0.336,-0.44 0.282,-0.44C0.228,-0.44 0.185,-0.421 0.154,-0.384C0.124,-0.349 0.109,-0.305 0.109,-0.25C0.109,-0.195 0.124,-0.151 0.154,-0.116Z" style="fill:rgb(64,64,64);fill-rule:nonzero;"/>
                </g>
                <g transform="matrix(16.6667,0,0,16.6667,302.443,166.87)">
                    <path d="M0.14,-0.5L0.14,-0.422C0.157,-0.445 0.179,-0.466 0.206,-0.483C0.231,-0.5 0.261,-0.508 0.295,-0.508C0.328,-0.508 0.356,-0.503 0.381,-0.494C0.405,-0.485 0.426,-0.471 0.444,-0.452C0.485,-0.411 0.506,-0.357 0.506,-0.291L0.506,-0L0.431,-0L0.431,-0.289C0.431,-0.335 0.418,-0.372 0.392,-0.399C0.366,-0.426 0.332,-0.44 0.291,-0.44C0.249,-0.44 0.213,-0.426 0.184,-0.398C0.155,-0.369 0.14,-0.332 0.14,-0.288L0.14,-0L0.065,-0L0.065,-0.5L0.14,-0.5Z" style="fill:rgb(64,64,64);fill-rule:nonzero;"/>
                </g>
                <g transform="matrix(16.6667,0,0,16.6667,311.876,166.87)">
                    <path d="M0.455,-0.08C0.415,-0.021 0.355,0.008 0.276,0.008C0.204,0.008 0.145,-0.017 0.1,-0.067C0.056,-0.116 0.034,-0.177 0.034,-0.25C0.034,-0.323 0.056,-0.384 0.1,-0.433C0.145,-0.483 0.205,-0.508 0.281,-0.508C0.356,-0.508 0.414,-0.478 0.455,-0.419L0.455,-0.5L0.53,-0.5L0.53,-0L0.455,-0L0.455,-0.08ZM0.286,-0.06C0.34,-0.06 0.383,-0.079 0.414,-0.116C0.444,-0.151 0.459,-0.196 0.459,-0.25C0.459,-0.305 0.444,-0.349 0.414,-0.384C0.383,-0.421 0.34,-0.44 0.286,-0.44C0.233,-0.44 0.189,-0.421 0.156,-0.384C0.125,-0.349 0.109,-0.304 0.109,-0.25C0.109,-0.196 0.125,-0.151 0.156,-0.116C0.189,-0.079 0.233,-0.06 0.286,-0.06Z" style="fill:rgb(64,64,64);fill-rule:nonzero;"/>
                </g>
                <g transform="matrix(16.6667,0,0,16.6667,321.793,166.87)">
                    <rect x="0.065" y="-0.7" width="0.075" height="0.7" style="fill:rgb(64,64,64);fill-rule:nonzero;"/>
                </g>
                <g transform="matrix(16.6667,0,0,16.6667,328.759,166.87)">
                    <path d="M0.14,-0.7L0.14,-0.422C0.157,-0.445 0.179,-0.466 0.206,-0.483C0.231,-0.5 0.261,-0.508 0.295,-0.508C0.328,-0.508 0.356,-0.503 0.381,-0.494C0.405,-0.485 0.426,-0.471 0.444,-0.452C0.485,-0.411 0.506,-0.357 0.506,-0.291L0.506,-0L0.431,-0L0.431,-0.289C0.431,-0.335 0.418,-0.372 0.392,-0.399C0.366,-0.426 0.332,-0.44 0.291,-0.44C0.249,-0.44 0.213,-0.426 0.184,-0.398C0.155,-0.369 0.14,-0.332 0.14,-0.288L0.14,-0L0.065,-0L0.065,-0.7L0.14,-0.7Z" style="fill:rgb(64,64,64);fill-rule:nonzero;"/>
                </g>
                <g transform="matrix(16.6667,0,0,16.6667,338.193,166.87)">
                    <path d="M0.1,-0.433C0.147,-0.483 0.207,-0.508 0.282,-0.508C0.357,-0.508 0.417,-0.483 0.464,-0.433C0.508,-0.385 0.53,-0.324 0.53,-0.25C0.53,-0.176 0.508,-0.115 0.464,-0.067C0.417,-0.017 0.357,0.008 0.282,0.008C0.207,0.008 0.147,-0.017 0.1,-0.067C0.056,-0.115 0.034,-0.176 0.034,-0.25C0.034,-0.324 0.056,-0.385 0.1,-0.433ZM0.154,-0.116C0.185,-0.079 0.228,-0.06 0.282,-0.06C0.336,-0.06 0.379,-0.079 0.41,-0.116C0.44,-0.151 0.455,-0.196 0.455,-0.25C0.455,-0.305 0.44,-0.349 0.41,-0.384C0.379,-0.421 0.336,-0.44 0.282,-0.44C0.228,-0.44 0.185,-0.421 0.154,-0.384C0.124,-0.349 0.109,-0.305 0.109,-0.25C0.109,-0.195 0.124,-0.151 0.154,-0.116Z" style="fill:rgb(64,64,64);fill-rule:nonzero;"/>
                </g>
                <g transform="matrix(16.6667,0,0,16.6667,347.593,166.87)">
                    <path d="M0.14,-0.424C0.173,-0.48 0.224,-0.508 0.292,-0.508C0.325,-0.508 0.355,-0.499 0.384,-0.482C0.413,-0.464 0.435,-0.439 0.451,-0.407C0.474,-0.449 0.51,-0.479 0.557,-0.497C0.577,-0.504 0.599,-0.508 0.622,-0.508C0.646,-0.508 0.669,-0.503 0.692,-0.494C0.715,-0.484 0.735,-0.47 0.752,-0.452C0.789,-0.411 0.808,-0.361 0.808,-0.302L0.808,-0L0.733,-0L0.733,-0.3C0.733,-0.341 0.721,-0.375 0.698,-0.402C0.675,-0.427 0.645,-0.44 0.609,-0.44C0.57,-0.44 0.539,-0.428 0.514,-0.403C0.487,-0.378 0.474,-0.344 0.474,-0.299L0.474,-0L0.399,-0L0.399,-0.3C0.399,-0.341 0.387,-0.375 0.364,-0.402C0.341,-0.427 0.311,-0.44 0.275,-0.44C0.236,-0.44 0.205,-0.428 0.18,-0.403C0.153,-0.378 0.14,-0.344 0.14,-0.299L0.14,-0L0.065,-0L0.065,-0.5L0.14,-0.5L0.14,-0.424Z" style="fill:rgb(64,64,64);fill-rule:nonzero;"/>
                </g>
                <g transform="matrix(16.6667,0,0,16.6667,362.059,166.87)">
                    <path d="M0.288,-0.06C0.356,-0.06 0.404,-0.088 0.433,-0.144L0.515,-0.144C0.498,-0.099 0.47,-0.062 0.432,-0.034C0.395,-0.006 0.347,0.008 0.287,0.008C0.212,0.008 0.15,-0.017 0.103,-0.067C0.057,-0.116 0.034,-0.177 0.034,-0.25C0.034,-0.324 0.056,-0.385 0.1,-0.433C0.147,-0.483 0.207,-0.508 0.282,-0.508C0.357,-0.508 0.417,-0.483 0.464,-0.433C0.508,-0.385 0.53,-0.324 0.53,-0.25L0.53,-0.22L0.111,-0.22C0.116,-0.175 0.134,-0.137 0.166,-0.106C0.197,-0.075 0.238,-0.06 0.288,-0.06ZM0.398,-0.397C0.367,-0.426 0.329,-0.44 0.282,-0.44C0.235,-0.44 0.197,-0.426 0.166,-0.397C0.137,-0.37 0.119,-0.335 0.112,-0.29L0.452,-0.29C0.445,-0.335 0.427,-0.37 0.398,-0.397Z" style="fill:rgb(64,64,64);fill-rule:nonzero;"/>
                </g>
                <g transform="matrix(16.6667,0,0,16.6667,371.343,166.87)">
                    <path d="M0.14,-0.42C0.18,-0.479 0.24,-0.508 0.319,-0.508C0.39,-0.508 0.449,-0.483 0.494,-0.433C0.539,-0.384 0.561,-0.323 0.561,-0.25C0.561,-0.177 0.539,-0.116 0.494,-0.067C0.449,-0.017 0.389,0.008 0.314,0.008C0.239,0.008 0.181,-0.022 0.14,-0.081L0.14,0.198L0.065,0.198L0.065,-0.5L0.14,-0.5L0.14,-0.42ZM0.309,-0.44C0.255,-0.44 0.212,-0.421 0.181,-0.384C0.151,-0.349 0.136,-0.305 0.136,-0.25C0.136,-0.195 0.151,-0.151 0.181,-0.116C0.212,-0.079 0.255,-0.06 0.309,-0.06C0.362,-0.06 0.406,-0.079 0.439,-0.116C0.47,-0.151 0.486,-0.196 0.486,-0.25C0.486,-0.304 0.47,-0.349 0.439,-0.384C0.406,-0.421 0.362,-0.44 0.309,-0.44Z" style="fill:rgb(64,64,64);fill-rule:nonzero;"/>
                </g>
                <g transform="matrix(16.6667,0,0,16.6667,381.243,166.87)">
                    <path d="M0.455,-0.08C0.415,-0.021 0.355,0.008 0.276,0.008C0.204,0.008 0.145,-0.017 0.1,-0.067C0.056,-0.116 0.034,-0.177 0.034,-0.25C0.034,-0.323 0.056,-0.384 0.1,-0.433C0.145,-0.483 0.205,-0.508 0.281,-0.508C0.356,-0.508 0.414,-0.478 0.455,-0.419L0.455,-0.5L0.53,-0.5L0.53,-0L0.455,-0L0.455,-0.08ZM0.286,-0.06C0.34,-0.06 0.383,-0.079 0.414,-0.116C0.444,-0.151 0.459,-0.196 0.459,-0.25C0.459,-0.305 0.444,-0.349 0.414,-0.384C0.383,-0.421 0.34,-0.44 0.286,-0.44C0.233,-0.44 0.189,-0.421 0.156,-0.384C0.125,-0.349 0.109,-0.304 0.109,-0.25C0.109,-0.196 0.125,-0.151 0.156,-0.116C0.189,-0.079 0.233,-0.06 0.286,-0.06Z" style="fill:rgb(64,64,64);fill-rule:nonzero;"/>
                </g>
                <g transform="matrix(16.6667,0,0,16.6667,391.159,166.87)">
                    <path d="M0.455,-0.42L0.455,-0.5L0.53,-0.5L0.53,-0.015C0.53,0.058 0.509,0.113 0.468,0.15C0.427,0.187 0.372,0.206 0.303,0.206C0.233,0.206 0.179,0.193 0.14,0.166C0.101,0.138 0.075,0.103 0.061,0.06L0.144,0.06C0.165,0.112 0.214,0.138 0.29,0.138C0.348,0.138 0.39,0.125 0.416,0.098C0.442,0.071 0.455,0.032 0.455,-0.02L0.455,-0.089C0.414,-0.03 0.354,-0 0.276,-0C0.204,-0 0.145,-0.025 0.1,-0.074C0.056,-0.122 0.034,-0.182 0.034,-0.254C0.034,-0.326 0.056,-0.386 0.1,-0.434C0.145,-0.483 0.206,-0.508 0.282,-0.508C0.357,-0.508 0.415,-0.479 0.455,-0.42ZM0.286,-0.068C0.313,-0.068 0.337,-0.073 0.359,-0.082C0.382,-0.093 0.4,-0.106 0.414,-0.122C0.444,-0.157 0.459,-0.201 0.459,-0.254C0.459,-0.307 0.444,-0.351 0.414,-0.386C0.381,-0.422 0.338,-0.44 0.286,-0.44C0.233,-0.44 0.189,-0.422 0.156,-0.386C0.125,-0.351 0.109,-0.307 0.109,-0.254C0.109,-0.201 0.125,-0.157 0.156,-0.122C0.189,-0.086 0.232,-0.068 0.286,-0.068Z" style="fill:rgb(64,64,64);fill-rule:nonzero;"/>
                </g>
                <g transform="matrix(16.6667,0,0,16.6667,401.076,166.87)">
                    <path d="M0.288,-0.06C0.356,-0.06 0.404,-0.088 0.433,-0.144L0.515,-0.144C0.498,-0.099 0.47,-0.062 0.432,-0.034C0.395,-0.006 0.347,0.008 0.287,0.008C0.212,0.008 0.15,-0.017 0.103,-0.067C0.057,-0.116 0.034,-0.177 0.034,-0.25C0.034,-0.324 0.056,-0.385 0.1,-0.433C0.147,-0.483 0.207,-0.508 0.282,-0.508C0.357,-0.508 0.417,-0.483 0.464,-0.433C0.508,-0.385 0.53,-0.324 0.53,-0.25L0.53,-0.22L0.111,-0.22C0.116,-0.175 0.134,-0.137 0.166,-0.106C0.197,-0.075 0.238,-0.06 0.288,-0.06ZM0.398,-0.397C0.367,-0.426 0.329,-0.44 0.282,-0.44C0.235,-0.44 0.197,-0.426 0.166,-0.397C0.137,-0.37 0.119,-0.335 0.112,-0.29L0.452,-0.29C0.445,-0.335 0.427,-0.37 0.398,-0.397Z" style="fill:rgb(64,64,64);fill-rule:nonzero;"/>
                </g>
            </g>
        </g>
        <g transform="matrix(1,0,0,1,2785.07,0)">
            <g transform="matrix(1,0,0,1,679.157,28.509)">
                <g transform="matrix(33.3333,0,0,33.3333,245.493,148.704)">
                    <path d="M0.156,-0L0.081,-0L0.081,-0.662L0.379,-0.662C0.45,-0.662 0.505,-0.643 0.546,-0.604C0.587,-0.565 0.607,-0.514 0.607,-0.449C0.607,-0.384 0.587,-0.333 0.546,-0.294C0.505,-0.255 0.449,-0.236 0.379,-0.236L0.156,-0.236L0.156,-0ZM0.156,-0.591L0.156,-0.306L0.374,-0.306C0.425,-0.306 0.465,-0.319 0.492,-0.344C0.519,-0.369 0.532,-0.403 0.532,-0.448C0.532,-0.493 0.519,-0.528 0.492,-0.553C0.465,-0.578 0.425,-0.591 0.374,-0.591L0.156,-0.591Z" style="fill:rgb(80,80,80);fill-rule:nonzero;"/>
                </g>
                <g transform="matrix(33.3333,0,0,33.3333,266.426,148.704)">
                    <path d="M0.455,-0.08C0.415,-0.021 0.355,0.008 0.276,0.008C0.204,0.008 0.145,-0.017 0.1,-0.067C0.056,-0.116 0.034,-0.177 0.034,-0.25C0.034,-0.323 0.056,-0.384 0.1,-0.433C0.145,-0.483 0.205,-0.508 0.281,-0.508C0.356,-0.508 0.414,-0.478 0.455,-0.419L0.455,-0.5L0.53,-0.5L0.53,-0L0.455,-0L0.455,-0.08ZM0.286,-0.06C0.34,-0.06 0.383,-0.079 0.414,-0.116C0.444,-0.151 0.459,-0.196 0.459,-0.25C0.459,-0.305 0.444,-0.349 0.414,-0.384C0.383,-0.421 0.34,-0.44 0.286,-0.44C0.233,-0.44 0.189,-0.421 0.156,-0.384C0.125,-0.349 0.109,-0.304 0.109,-0.25C0.109,-0.196 0.125,-0.151 0.156,-0.116C0.189,-0.079 0.233,-0.06 0.286,-0.06Z" style="fill:rgb(80,80,80);fill-rule:nonzero;"/>
                </g>
                <g transform="matrix(33.3333,0,0,33.3333,286.259,148.704)">
                    <rect x="0.065" y="-0.7" width="0.075" height="0.7" style="fill:rgb(80,80,80);fill-rule:nonzero;"/>
                </g>
                <g transform="matrix(33.3333,0,0,33.3333,293.093,148.704)">
                    <path d="M0.125,-0.07L0.425,-0.07L0.425,-0L0.031,-0L0.031,-0.071L0.33,-0.431L0.035,-0.431L0.035,-0.5L0.425,-0.5L0.425,-0.43L0.125,-0.07Z" style="fill:rgb(80,80,80);fill-rule:nonzero;"/>
                </g>
                <g transform="matrix(33.3333,0,0,33.3333,308.359,148.704)">
                    <path d="M0.359,-0.366C0.352,-0.418 0.31,-0.444 0.234,-0.444C0.157,-0.444 0.118,-0.42 0.118,-0.372C0.118,-0.352 0.126,-0.337 0.142,-0.326C0.159,-0.316 0.179,-0.308 0.204,-0.301C0.223,-0.296 0.249,-0.289 0.284,-0.282C0.313,-0.277 0.34,-0.269 0.365,-0.258C0.39,-0.248 0.41,-0.234 0.426,-0.216C0.443,-0.199 0.451,-0.174 0.451,-0.142C0.451,-0.093 0.433,-0.056 0.396,-0.03C0.359,-0.005 0.309,0.008 0.247,0.008C0.18,0.008 0.127,-0.009 0.088,-0.042C0.053,-0.071 0.033,-0.109 0.03,-0.157L0.108,-0.157C0.113,-0.111 0.139,-0.08 0.186,-0.064C0.204,-0.059 0.221,-0.056 0.238,-0.056C0.254,-0.056 0.27,-0.057 0.285,-0.059C0.298,-0.061 0.312,-0.065 0.328,-0.07C0.36,-0.083 0.376,-0.105 0.376,-0.135C0.376,-0.156 0.368,-0.172 0.352,-0.182C0.338,-0.192 0.317,-0.201 0.29,-0.21C0.249,-0.22 0.222,-0.226 0.21,-0.228C0.182,-0.233 0.155,-0.241 0.129,-0.252C0.105,-0.261 0.085,-0.275 0.068,-0.293C0.051,-0.31 0.043,-0.334 0.043,-0.365C0.043,-0.41 0.059,-0.445 0.092,-0.47C0.125,-0.495 0.174,-0.508 0.239,-0.508C0.3,-0.508 0.349,-0.493 0.384,-0.464C0.413,-0.439 0.43,-0.406 0.435,-0.366L0.359,-0.366Z" style="fill:rgb(80,80,80);fill-rule:nonzero;"/>
                </g>
                <g transform="matrix(33.3333,0,0,33.3333,331.526,148.704)">
                    <path d="M0.616,-0.662L0.616,-0L0.541,-0L0.541,-0.295L0.156,-0.295L0.156,-0L0.081,-0L0.081,-0.662L0.156,-0.662L0.156,-0.368L0.541,-0.368L0.541,-0.662L0.616,-0.662Z" style="fill:rgb(91,35,35);fill-rule:nonzero;"/>
                </g>
                <g transform="matrix(33.3333,0,0,33.3333,354.759,148.704)">
                    <path d="M0.156,-0L0.081,-0L0.081,-0.662L0.379,-0.662C0.45,-0.662 0.505,-0.643 0.546,-0.604C0.587,-0.565 0.607,-0.514 0.607,-0.449C0.607,-0.384 0.587,-0.333 0.546,-0.294C0.505,-0.255 0.449,-0.236 0.379,-0.236L0.156,-0.236L0.156,-0ZM0.156,-0.591L0.156,-0.306L0.374,-0.306C0.425,-0.306 0.465,-0.319 0.492,-0.344C0.519,-0.369 0.532,-0.403 0.532,-0.448C0.532,-0.493 0.519,-0.528 0.492,-0.553C0.465,-0.578 0.425,-0.591 0.374,-0.591L0.156,-0.591Z" style="fill:rgb(91,35,35);fill-rule:nonzero;"/>
                </g>
            </g>
        </g>
    </g>
</svg>
